X:58
T:Prusian Rant. Ru2.058, The
M:C|
L:1/8
R:Rant
B:RUTHERFORD Complete Collection of 200 Country Dances Vol.2; 1759.
Z:vmp. Peter Dunk 2015
Q:1/2=80
K:A
e2 af e2 dc|dfdB cecA|egag aecA|dfec {c}B4:|
|:BGFE BcdB|cAGA eAcg|acdf eGAd|cBAG {G}A4:|
W:
W:First couple foot it & turn the 2d Wo .| the same to 2d man:|
W:Gallop down one Cu: up again & cast off.| lead through the
W:3d Cu: & cast up into the 2d Cu: places ?

